X:531
T:B531-  Would you be a Man of Fashion
Q:1/4=120
L:1/4
M:4/4
K:G
dgde|B3/2c/de|AdGd|B3/2c/d2|\
gf(a/g/) (f/e/)|^dfge|(a/g/) (f/e/)^cf|ge(f/g/)a|\
g3/2a/f3/2g/|g2d3/2d/|G3/2G/cA|^GBe3/2e/|\
B3/2B/cA|F2dg|f3/2e/d3/2c/|dBdg|\
deA3/2G/|G4|]
